svg/u1f64b_1f3ff_200d_2642.svg

<svg viewBox="0 0 128 128" xmlns="http://www.w3.org/2000/svg">
  <g id="shirt_2_">
    <linearGradient id="shirt_x5F_fill_1_" gradientTransform="matrix(1 0 0 -1 0 128)" gradientUnits="userSpaceOnUse" x1="60.195" x2="60.195" y1="43.8417" y2="10.9057">
      <stop offset="0" stop-color="#00BFA5"/>
      <stop offset="0.7047" stop-color="#00B29A"/>
      <stop offset="1" stop-color="#00AB94"/>
    </linearGradient>
    <path id="shirt_x5F_fill" d="M115.17,124c-0.26-7.29-6.17-16.97-13.82-20.99 C91.29,97.72,78.41,96,63.99,96c-8.9,0-15.98,2.62-24.35-0.01c-4.44-1.4-7.51-3.69-8.97-8.18l-1.32-4.05l-24.13,6 c0,0,5.02,21.89,7.57,34.24H115.17z" fill="url(#shirt_x5F_fill_1_)"/>
  </g>
  <path id="neck_1_" d="M73.07,90.08H54.91v9.98c0,4.51,3.7,8.17,8.26,8.17h1.65c4.56,0,8.26-3.66,8.26-8.17 v-9.98H73.07z" fill="#3C2B24"/>
  <path id="ears_1_" d="M91.33,50.43H36.67c-5.89,0-10.71,5.14-10.71,11.41c0,6.28,4.82,11.41,10.71,11.41 h54.65c5.89,0,10.71-5.14,10.71-11.41C102.04,55.57,97.22,50.43,91.33,50.43z" fill="#3C2B24"/>
  <path id="head_1_" d="M64,11.07c-17.4,0-33.52,18.61-33.52,45.39c0,26.64,16.61,39.81,33.52,39.81 S97.52,83.1,97.52,56.46C97.52,29.68,81.4,11.07,64,11.07z" fill="#70534A"/>
  <path id="mouth_1_" d="M72.42,76.14c-3.19,1.89-13.63,1.89-16.81,0c-1.83-1.09-3.7,0.58-2.94,2.24 c0.75,1.63,6.45,5.42,11.37,5.42s10.55-3.79,11.3-5.42C76.09,76.72,74.25,75.05,72.42,76.14z" fill="#1A1717"/>
  <path id="nose_1_" d="M67.86,68.06c-0.11-0.04-0.21-0.07-0.32-0.08h-7.07c-0.11,0.01-0.22,0.04-0.32,0.08 c-0.64,0.26-0.99,0.92-0.69,1.63s1.71,2.69,4.55,2.69c2.84,0,4.25-1.99,4.55-2.69C68.85,68.98,68.5,68.32,67.86,68.06z" fill="#33251F"/>
  <g id="eyes_1_">
    <ellipse cx="47.56" cy="58.81" fill="#1A1717" rx="4.93" ry="5.1"/>
    <ellipse cx="80.44" cy="58.81" fill="#1A1717" rx="4.93" ry="5.1"/>
  </g>
  <g id="eyebrows_1_">
    <path d="M88.08,50.79L88.08,50.79c0-0.01-2.29-3.61-7.6-3.61s-7.6,3.6-7.6,3.6l0,0.01 c-0.19,0.26-0.3,0.58-0.3,0.92c0,0.87,0.71,1.58,1.57,1.58c0.18,0,0.62-0.13,0.66-0.15c3.18-1.31,5.67-1.32,5.67-1.32 s2.47,0.01,5.65,1.32c0.04,0.02,0.48,0.15,0.66,0.15c0.87,0,1.57-0.71,1.57-1.58C88.39,51.36,88.27,51.04,88.08,50.79z" fill="#1A1717"/>
    <path d="M55.08,50.79L55.08,50.79c0.01-0.01-2.29-3.61-7.59-3.61s-7.6,3.6-7.6,3.6l0.01,0.01 c-0.19,0.26-0.3,0.58-0.3,0.92c0,0.87,0.71,1.58,1.58,1.58c0.18,0,0.62-0.13,0.66-0.15c3.18-1.31,5.67-1.32,5.67-1.32 s2.47,0.01,5.65,1.32c0.04,0.02,0.48,0.15,0.66,0.15c0.87,0,1.58-0.71,1.58-1.58C55.38,51.36,55.27,51.04,55.08,50.79z" fill="#1A1717"/>
  </g>
  <g id="hairGroup_1_">
    <path id="hair_1_" d="M64.01,4.03L64.01,4.03c-0.01,0-0.01,0-0.02,0s-0.01,0-0.02,0v0 C18.53,4.27,27.84,56.17,27.84,56.17s2.04,5.35,2.97,7.71c0.13,0.34,0.63,0.3,0.71-0.05c0.97-4.34,4.46-19.73,6.22-24.4 c1.04-2.76,3.9-4.36,6.8-3.83c4.45,0.81,11.55,1.81,19.37,1.81c0.03,0,0.06,0,0.08,0s0.06,0,0.08,0c7.82,0,14.92-1,19.37-1.81 c2.9-0.53,5.76,1.08,6.79,3.83c1.75,4.66,5.22,19.96,6.2,24.36c0.08,0.36,0.58,0.39,0.71,0.05l2.98-7.67 C100.14,56.17,109.44,4.27,64.01,4.03z" fill="#232020"/>
    <radialGradient id="hairHighlights_2_" cx="63.9905" cy="80.9008" gradientTransform="matrix(1 0 0 -1.1282 0 138.3704)" gradientUnits="userSpaceOnUse" r="38.0924">
      <stop offset="0.7945" stop-color="#444140" stop-opacity="0"/>
      <stop offset="1" stop-color="#444140"/>
    </radialGradient>
    <path id="hairHighlights_1_" d="M100.14,56.17c0,0,9.31-51.9-36.13-52.14v0 c-0.01,0-0.01,0-0.02,0h0c-0.01,0-0.01,0-0.02,0l0,0c-0.71,0-1.4,0.02-2.08,0.05c-1.35,0.06-2.66,0.16-3.92,0.31 c-0.01,0-0.03,0-0.04,0c-0.09,0.01-0.17,0.03-0.26,0.04C19.43,9.24,27.84,56.17,27.84,56.17l2.98,7.68 c0.13,0.34,0.62,0.31,0.7-0.05c0.98-4.39,4.46-19.71,6.22-24.37c1.04-2.76,3.9-4.36,6.8-3.83c4.45,0.81,11.55,1.81,19.37,1.81 c0.03,0,0.06,0,0.08,0s0.06,0,0.08,0c7.82,0,14.92-1,19.37-1.81c2.9-0.53,5.76,1.08,6.79,3.83c1.76,4.68,5.25,20.1,6.21,24.42 c0.08,0.36,0.57,0.39,0.7,0.05C98.08,61.54,100.14,56.17,100.14,56.17z" fill="url(#hairHighlights_2_)"/>
  </g>
  <linearGradient id="hand_1_" gradientTransform="matrix(1 0 0 -1 0 128)" gradientUnits="userSpaceOnUse" x1="32.5468" x2="24.5845" y1="118.0474" y2="83.7484">
    <stop offset="0.5" stop-color="#70534A"/>
    <stop offset="1" stop-color="#5C4037"/>
  </linearGradient>
  <path id="hand" d="M44.33,31.43c-2.3,0.03-6.66,3.52-8.4,5.76c-2.84,3.64-4.85,11.23-14.21,8.31 c-1.67-0.51-8.34-1.63-9.49-2.3c-0.78-0.45-2.85-4.14-1.54-11.69c0.49-2.87,1.66-9.81,1.66-9.81L14,10.83 c0.21-1.83,1.48-3.01,3.21-2.58c1.39,0.35,1.78,1.6,1.68,3.23l-0.39,6.54v0.04c0,0.29,0.21,0.55,0.51,0.61 c0.33,0.06,0.65-0.15,0.72-0.48c0.48-2.19,2.14-9.8,2.51-11.15c0.44-1.58,1.27-2.84,3.04-2.45c1.77,0.38,2.05,2.22,1.75,3.67 c-0.29,1.44-2.18,11.47-2.18,11.47c-0.07,0.35,0.12,0.68,0.45,0.76c0,0,0,0,0.01,0c0.31,0.07,0.63-0.14,0.72-0.47l4.12-13.55 c0.49-1.78,2.01-2.87,3.64-2.14c1.3,0.59,1.59,2.09,1.18,3.58l-3.49,13.83c-0.04,0.16,0.04,0.33,0.19,0.38h0.01 c0.14,0.04,0.3-0.04,0.35-0.19l4.7-11.35c0.56-1.43,1.8-2.43,3.18-2.07c1.76,0.44,2.28,2.23,1.62,3.94c0,0-4.49,12.27-5.91,16.05 c-0.02,0.07-0.05,0.14-0.07,0.2c-0.01,0.02-0.02,0.03-0.02,0.04c-0.12,0.33,0.04,0.65,0.31,0.78c0.08,0.04,0.17,0.06,0.26,0.06 c0.1,0,0.2-0.03,0.3-0.07c0.09-0.05,0.18-0.09,0.26-0.15c0.03-0.02,0.06-0.04,0.09-0.06c1.42-0.88,2.77-2.81,4.97-3.1 c2.4-0.32,3.95,0.58,4.46,1.62C46.62,28.69,46.63,31.39,44.33,31.43z" fill="url(#hand_1_)"/>
  <g id="shirt_x5F_sleeve_x5F_left">
    <linearGradient id="shirt_x5F_right_1_" gradientTransform="matrix(1 0 0 -1 0 128)" gradientUnits="userSpaceOnUse" x1="17.5748" x2="17.5748" y1="45.0495" y2="-27.9493">
      <stop offset="0" stop-color="#00BFA5"/>
      <stop offset="0.7047" stop-color="#00B29A"/>
      <stop offset="1" stop-color="#00AB94"/>
    </linearGradient>
    <path id="shirt_x5F_right" d="M29.12,83.06c-0.48-1.94-0.66-3.94-0.54-5.93l0.63-29.18 c0.05-0.8-0.37-1.52-1.03-1.88c-0.24-0.15-0.51-0.26-0.8-0.3l-15.97-3.7c-1.03-0.13-1.99,0.55-2.21,1.56c0,0-4.13,30.92-4.43,33.39 S3.69,82.46,4.5,86.2l0.72,3.55l25.79-0.69L29.12,83.06z" fill="url(#shirt_x5F_right_1_)"/>
  </g>
  <path id="tone_1_" d="M35.83,29.52c-3.12,0.14-6.24,0.51-8.95,1.9c-1.36,0.71-2.56,1.69-3.58,2.86 c-0.82,0.93-1.48,1.98-2.08,3.11c-0.02,0.05-0.07,0.08-0.11,0.08c-0.07,0-0.11-0.05-0.12-0.11v-0.01c0-0.03,0.9-2.51,1.64-3.59 c0.93-1.38,2.23-2.53,3.71-3.35c1.47-0.82,3.08-1.35,4.71-1.62c1.52-0.27,3.05-0.35,4.56-0.29c-0.02,0.07-0.05,0.14-0.07,0.2 c-0.01,0.02-0.02,0.03-0.02,0.04C35.4,29.07,35.56,29.39,35.83,29.52z" fill="#4A2F27"/>
</svg>

<svg viewBox="0 0 128 128" xmlns="http://www.w3.org/2000/svg">
  <defs>
    <radialGradient id="hairHighlights_2_" cx="63.9905" cy="-41.746248" gradientTransform="matrix(1 0 0 -1.1282 0 0)" gradientUnits="userSpaceOnUse" r="38.0924">
      <stop offset="0.7945" stop-color="#444140" stop-opacity="0"/>
      <stop offset="1" stop-color="#444140"/>
    </radialGradient>
    <linearGradient id="hand_1_" gradientTransform="matrix(1 0 0 -1 0 0)" gradientUnits="userSpaceOnUse" x1="32.5468" x2="24.5845" y1="-9.9526" y2="-44.2516">
      <stop offset="0.5" stop-color="#70534A"/>
      <stop offset="1" stop-color="#5C4037"/>
    </linearGradient>
    <linearGradient id="shirt_x5F_fill_1_" gradientTransform="matrix(1 0 0 -1 0 0)" gradientUnits="userSpaceOnUse" x1="60.195" x2="60.195" y1="-84.1583" y2="-117.0943">
      <stop offset="0" stop-color="#00BFA5"/>
      <stop offset="0.7047" stop-color="#00B29A"/>
      <stop offset="1" stop-color="#00AB94"/>
    </linearGradient>
    <linearGradient id="shirt_x5F_right_1_" gradientTransform="matrix(1 0 0 -1 0 0)" gradientUnits="userSpaceOnUse" x1="17.5748" x2="17.5748" y1="-82.9505" y2="-155.9493">
      <stop offset="0" stop-color="#00BFA5"/>
      <stop offset="0.7047" stop-color="#00B29A"/>
      <stop offset="1" stop-color="#00AB94"/>
    </linearGradient>
  </defs>
  <path id="shirt_x5F_fill" d="M115.17,124 C114.91,116.71 109,107.03 101.35,103.01 C91.29,97.72 78.41,96 63.99,96 C55.09,96 48.01,98.62 39.64,95.99 C35.2,94.59 32.13,92.3 30.67,87.81 L29.35,83.76 L5.22,89.76 C5.22,89.76 10.24,111.65 12.79,124 L115.17,124 Z" fill="url(#shirt_x5F_fill_1_)"/>
  <path id="neck_1_" d="M73.07,90.08 L54.91,90.08 L54.91,100.06 C54.91,104.57 58.61,108.23 63.17,108.23 L64.82,108.23 C69.38,108.23 73.08,104.57 73.08,100.06 L73.08,90.08 L73.07,90.08 Z" fill="#3C2B24"/>
  <path id="ears_1_" d="M91.33,50.43 L36.67,50.43 C30.78,50.43 25.96,55.57 25.96,61.84 C25.96,68.12 30.78,73.25 36.67,73.25 L91.32,73.25 C97.21,73.25 102.03,68.11 102.03,61.84 C102.04,55.57 97.22,50.43 91.33,50.43 Z" fill="#3C2B24"/>
  <path id="head_1_" d="M64,11.07 C46.6,11.07 30.48,29.68 30.48,56.46 C30.48,83.1 47.09,96.27 64,96.27 C80.91,96.27 97.52,83.1 97.52,56.46 C97.52,29.68 81.4,11.07 64,11.07 Z" fill="#70534A"/>
  <path id="mouth_1_" d="M72.42,76.14 C69.23,78.03 58.79,78.03 55.61,76.14 C53.78,75.05 51.91,76.72 52.67,78.38 C53.42,80.01 59.12,83.8 64.04,83.8 C68.96,83.8 74.59,80.01 75.34,78.38 C76.09,76.72 74.25,75.05 72.42,76.14 Z" fill="#1A1717"/>
  <path id="nose_1_" d="M67.86,68.06 C67.75,68.02 67.65,67.99 67.54,67.98 L60.47,67.98 C60.36,67.99 60.25,68.02 60.15,68.06 C59.51,68.32 59.16,68.98 59.46,69.69 C59.76,70.4 61.17,72.38 64.01,72.38 C66.85,72.38 68.26,70.39 68.56,69.69 C68.85,68.98 68.5,68.32 67.86,68.06 Z" fill="#33251F"/>
  <path d="M52.49,58.81 A4.93 5.1 0 1 1 42.63,58.81 A4.93 5.1 0 1 1 52.49,58.81 Z" fill="#1A1717"/>
  <path d="M85.37,58.81 A4.93 5.1 0 1 1 75.51,58.81 A4.93 5.1 0 1 1 85.37,58.81 Z" fill="#1A1717"/>
  <path d="M88.08,50.79 L88.08,50.79 C88.08,50.78 85.79,47.18 80.48,47.18 C75.17,47.18 72.88,50.78 72.88,50.78 L72.88,50.79 C72.69,51.05 72.58,51.37 72.58,51.71 C72.58,52.58 73.29,53.29 74.15,53.29 C74.33,53.29 74.77,53.16 74.81,53.14 C77.99,51.83 80.48,51.82 80.48,51.82 C80.48,51.82 82.95,51.83 86.13,53.14 C86.17,53.16 86.61,53.29 86.79,53.29 C87.66,53.29 88.36,52.58 88.36,51.71 C88.39,51.36 88.27,51.04 88.08,50.79 Z" fill="#1A1717"/>
  <path d="M55.08,50.79 L55.08,50.79 C55.09,50.78 52.79,47.18 47.49,47.18 C42.19,47.18 39.89,50.78 39.89,50.78 L39.9,50.79 C39.71,51.05 39.6,51.37 39.6,51.71 C39.6,52.58 40.31,53.29 41.18,53.29 C41.36,53.29 41.8,53.16 41.84,53.14 C45.02,51.83 47.51,51.82 47.51,51.82 C47.51,51.82 49.98,51.83 53.16,53.14 C53.2,53.16 53.64,53.29 53.82,53.29 C54.69,53.29 55.4,52.58 55.4,51.71 C55.38,51.36 55.27,51.04 55.08,50.79 Z" fill="#1A1717"/>
  <path id="hair_1_" d="M64.01,4.03 L64.01,4.03 C64,4.03 64,4.03 63.99,4.03 C63.98,4.03 63.98,4.03 63.97,4.03 L63.97,4.03 C18.53,4.27 27.84,56.17 27.84,56.17 C27.84,56.17 29.88,61.52 30.81,63.88 C30.94,64.22 31.44,64.18 31.52,63.83 C32.49,59.49 35.98,44.1 37.74,39.43 C38.78,36.67 41.64,35.07 44.54,35.6 C48.99,36.41 56.09,37.41 63.91,37.41 C63.94,37.41 63.97,37.41 63.99,37.41 C64.01,37.41 64.05,37.41 64.07,37.41 C71.89,37.41 78.99,36.41 83.44,35.6 C86.34,35.07 89.2,36.68 90.23,39.43 C91.98,44.09 95.45,59.39 96.43,63.79 C96.51,64.15 97.01,64.18 97.14,63.84 L100.12,56.17 C100.14,56.17 109.44,4.27 64.01,4.03 Z" fill="#232020"/>
  <path id="hairHighlights_1_" d="M100.14,56.17 C100.14,56.17 109.45,4.27 64.01,4.03 L64.01,4.03 C64,4.03 64,4.03 63.99,4.03 L63.99,4.03 C63.98,4.03 63.98,4.03 63.97,4.03 L63.97,4.03 C63.26,4.03 62.57,4.05 61.89,4.08 C60.54,4.14 59.23,4.24 57.97,4.39 C57.96,4.39 57.94,4.39 57.93,4.39 C57.84,4.4 57.76,4.42 57.67,4.43 C19.43,9.24 27.84,56.17 27.84,56.17 L30.82,63.85 C30.95,64.19 31.44,64.16 31.52,63.8 C32.5,59.41 35.98,44.09 37.74,39.43 C38.78,36.67 41.64,35.07 44.54,35.6 C48.99,36.41 56.09,37.41 63.91,37.41 C63.94,37.41 63.97,37.41 63.99,37.41 C64.01,37.41 64.05,37.41 64.07,37.41 C71.89,37.41 78.99,36.41 83.44,35.6 C86.34,35.07 89.2,36.68 90.23,39.43 C91.99,44.11 95.48,59.53 96.44,63.85 C96.52,64.21 97.01,64.24 97.14,63.9 C98.08,61.54 100.14,56.17 100.14,56.17 Z" fill="url(#hairHighlights_2_)"/>
  <path id="hand" d="M44.33,31.43 C42.03,31.46 37.67,34.95 35.93,37.19 C33.09,40.83 31.08,48.42 21.72,45.5 C20.05,44.99 13.38,43.87 12.23,43.2 C11.45,42.75 9.38,39.06 10.69,31.51 C11.18,28.64 12.35,21.7 12.35,21.7 L14,10.83 C14.21,9 15.48,7.82 17.21,8.25 C18.6,8.6 18.99,9.85 18.89,11.48 L18.5,18.02 L18.5,18.06 C18.5,18.35 18.71,18.61 19.01,18.67 C19.34,18.73 19.66,18.52 19.73,18.19 C20.21,16 21.87,8.39 22.24,7.04 C22.68,5.46 23.51,4.2 25.28,4.59 C27.05,4.97 27.33,6.81 27.03,8.26 C26.74,9.7 24.85,19.73 24.85,19.73 C24.78,20.08 24.97,20.41 25.3,20.49 C25.3,20.49 25.3,20.49 25.31,20.49 C25.62,20.56 25.94,20.35 26.03,20.02 L30.15,6.47 C30.64,4.69 32.16,3.6 33.79,4.33 C35.09,4.92 35.38,6.42 34.97,7.91 L31.48,21.74 C31.44,21.9 31.52,22.07 31.67,22.12 L31.68,22.12 C31.82,22.16 31.98,22.08 32.03,21.93 L36.73,10.58 C37.29,9.15 38.53,8.15 39.91,8.51 C41.67,8.95 42.19,10.74 41.53,12.45 C41.53,12.45 37.04,24.72 35.62,28.5 C35.6,28.57 35.57,28.64 35.55,28.7 C35.54,28.72 35.53,28.73 35.53,28.74 C35.41,29.07 35.57,29.39 35.84,29.52 C35.92,29.56 36.01,29.58 36.1,29.58 C36.2,29.58 36.3,29.55 36.4,29.51 C36.49,29.46 36.58,29.42 36.66,29.36 C36.69,29.34 36.72,29.32 36.75,29.3 C38.17,28.42 39.52,26.49 41.72,26.2 C44.12,25.88 45.67,26.78 46.18,27.82 C46.62,28.69 46.63,31.39 44.33,31.43 Z" fill="url(#hand_1_)"/>
  <path id="shirt_x5F_right" d="M29.12,83.06 C28.64,81.12 28.46,79.12 28.58,77.13 L29.21,47.95 C29.26,47.15 28.84,46.43 28.18,46.07 C27.94,45.92 27.67,45.81 27.38,45.77 L11.41,42.07 C10.38,41.94 9.42,42.62 9.2,43.63 C9.2,43.63 5.07,74.55 4.77,77.02 C4.47,79.49 3.69,82.46 4.5,86.2 L5.22,89.75 L31.01,89.06 L29.12,83.06 Z" fill="url(#shirt_x5F_right_1_)"/>
  <path id="tone_1_" d="M35.83,29.52 C32.71,29.66 29.59,30.03 26.88,31.42 C25.52,32.13 24.32,33.11 23.3,34.28 C22.48,35.21 21.82,36.26 21.22,37.39 C21.2,37.44 21.15,37.47 21.11,37.47 C21.04,37.47 21,37.42 20.99,37.36 L20.99,37.35 C20.99,37.32 21.89,34.84 22.63,33.76 C23.56,32.38 24.86,31.23 26.34,30.41 C27.81,29.59 29.42,29.06 31.05,28.79 C32.57,28.52 34.1,28.44 35.61,28.5 C35.59,28.57 35.56,28.64 35.54,28.7 C35.53,28.72 35.52,28.73 35.52,28.74 C35.4,29.07 35.56,29.39 35.83,29.52 Z" fill="#4A2F27"/>
</svg>
